humanity-icon-theme/Humanity/categories/22/applications-games.svg

<?xml version="1.0" encoding="UTF-8" standalone="no"?>
<!-- Created with Inkscape (http://www.inkscape.org/) -->

<svg
   xmlns:svg="http://www.w3.org/2000/svg"
   xmlns="http://www.w3.org/2000/svg"
   xmlns:xlink="http://www.w3.org/1999/xlink"
   version="1.0"
   width="22"
   height="22"
   id="svg11300">
  <defs
     id="defs3">
    <linearGradient
       id="linearGradient5460">
      <stop
         id="stop5462"
         style="stop-color:#e5e5e5;stop-opacity:1"
         offset="0" />
      <stop
         id="stop5464"
         style="stop-color:#c8c8c8;stop-opacity:1"
         offset="1" />
    </linearGradient>
    <linearGradient
       id="linearGradient2296">
      <stop
         id="stop2298"
         style="stop-color:white;stop-opacity:1"
         offset="0" />
      <stop
         id="stop2300"
         style="stop-color:white;stop-opacity:0"
         offset="1" />
    </linearGradient>
    <linearGradient
       id="linearGradient3116">
      <stop
         id="stop3118"
         style="stop-color:#e5e5e5;stop-opacity:1"
         offset="0" />
      <stop
         id="stop3120"
         style="stop-color:#dfdfdf;stop-opacity:1"
         offset="1" />
    </linearGradient>
    <linearGradient
       x1="48"
       y1="18.534204"
       x2="78"
       y2="18.534204"
       id="linearGradient5618"
       xlink:href="#linearGradient2296"
       gradientUnits="userSpaceOnUse"
       gradientTransform="matrix(0.969324,0.303467,-0.313034,0.999884,-26.51354,-28.87764)" />
    <linearGradient
       x1="54.287079"
       y1="9.1136208"
       x2="68.843483"
       y2="38.118332"
       id="linearGradient5637"
       xlink:href="#linearGradient2296"
       gradientUnits="userSpaceOnUse"
       gradientTransform="matrix(0.4353423,-0.00634152,0.00579602,0.4378357,-11.844242,-2.238724)" />
    <linearGradient
       x1="34.561821"
       y1="17.249048"
       x2="50.808903"
       y2="44.769524"
       id="linearGradient5641"
       xlink:href="#linearGradient3116"
       gradientUnits="userSpaceOnUse"
       gradientTransform="matrix(0.3340282,0,0,0.4831436,2.9237925,-2.5645745)" />
    <linearGradient
       x1="35.321308"
       y1="24.984463"
       x2="51.861248"
       y2="41.370472"
       id="linearGradient5644"
       xlink:href="#linearGradient5460"
       gradientUnits="userSpaceOnUse"
       gradientTransform="matrix(0.3746585,0,0,0.5157814,1.6149677,-3.4762215)" />
    <linearGradient
       x1="48"
       y1="18.534204"
       x2="78"
       y2="18.534204"
       id="linearGradient5648"
       xlink:href="#linearGradient2296"
       gradientUnits="userSpaceOnUse"
       gradientTransform="matrix(0.969324,0.303467,-0.313034,0.999884,-26.51354,-28.87764)" />
    <linearGradient
       x1="54.287079"
       y1="9.1136208"
       x2="68.843483"
       y2="38.118332"
       id="linearGradient6422"
       xlink:href="#linearGradient2296"
       gradientUnits="userSpaceOnUse"
       gradientTransform="matrix(0.4353419,-0.00634468,0.00579602,0.4380543,-19.844211,0.759659)" />
    <linearGradient
       x1="34.561821"
       y1="17.249048"
       x2="50.808903"
       y2="44.769524"
       id="linearGradient6427"
       xlink:href="#linearGradient3116"
       gradientUnits="userSpaceOnUse"
       gradientTransform="matrix(0.3340211,0,0,0.4831366,-5.071327,0.4509439)" />
    <linearGradient
       x1="35.321308"
       y1="24.984463"
       x2="51.861248"
       y2="41.370472"
       id="linearGradient6430"
       xlink:href="#linearGradient5460"
       gradientUnits="userSpaceOnUse"
       gradientTransform="matrix(0.3746583,0,0,0.515781,-6.3801334,-0.4612822)" />
    <radialGradient
       cx="1.8372425"
       cy="7.3192039"
       r="5.9880404"
       fx="1.8372425"
       fy="7.3192039"
       id="radialGradient6440"
       xlink:href="#linearGradient2296"
       gradientUnits="userSpaceOnUse"
       gradientTransform="matrix(1,0,0,1.4178085,0,-5.2169823)" />
    <radialGradient
       cx="9.5666256"
       cy="3.930162"
       r="5.9880404"
       fx="9.5666256"
       fy="3.930162"
       id="radialGradient6448"
       xlink:href="#linearGradient2296"
       gradientUnits="userSpaceOnUse"
       gradientTransform="matrix(1,0,0,1.4178084,0,-3.9571426)" />
  </defs>
  <g
     id="g6450">
    <g
       transform="matrix(0.3630062,-0.09739315,0.09578738,0.3690904,3.5107581,5.5646935)"
       id="g7713"
       style="stroke-width:2.88911819;stroke-miterlimit:4;stroke-dasharray:none;display:inline;enable-background:new">
      <path
         d="m 11.249051,13.68551 c 11.018461,7.81637 20.073808,0.268022 29.079725,9.104008 L 45.504535,4.7780871 44.31062,2.2533867 19.506897,-5.5996203 16.789787,-4.2944189 11.249051,13.68551 z"
         id="path7715"
         style="opacity:0.51648356;fill:url(#linearGradient5648);fill-opacity:1;fill-rule:evenodd;stroke:none" />
    </g>
    <rect
       width="12.975554"
       height="17.979935"
       rx="1.2713063"
       ry="1.3028855"
       x="8.5269146"
       y="0.48184735"
       transform="matrix(0.9999982,0.00189005,-0.0015676,0.9999988,0,0)"
       id="rect7717"
       style="fill:url(#linearGradient5644);fill-opacity:1;fill-rule:nonzero;stroke:#888a85;stroke-width:1;stroke-linecap:round;stroke-linejoin:miter;stroke-miterlimit:4;stroke-opacity:1;stroke-dasharray:none;stroke-dashoffset:0;display:inline;enable-background:new" />
    <rect
       width="10.975996"
       height="15.979704"
       rx="0.21896261"
       ry="0.2277939"
       x="9.5266352"
       y="1.4813366"
       transform="matrix(0.9999982,0.00191964,-0.00154205,0.9999988,0,0)"
       id="rect7719"
       style="fill:url(#linearGradient5641);fill-opacity:1;fill-rule:nonzero;stroke:url(#radialGradient6448);stroke-width:1.00008523;stroke-linecap:round;stroke-linejoin:miter;stroke-miterlimit:4;stroke-opacity:1;stroke-dasharray:none;stroke-dashoffset:0;display:inline;enable-background:new" />
    <path
       d="m 10.975579,2 c -0.697268,0.7714549 -0.9795379,0.9860752 -0.975538,1.4116682 0.0039,0.4137215 0.47248,0.7658769 0.871738,0.4978005 0.04599,0.1852782 0.05888,0.3929512 -0.157231,0.5558299 0.01768,-3.626e-4 0.571321,0 0.571321,0 -0.196149,-0.166976 -0.20743,-0.381971 -0.15205,-0.5894617 0.447509,0.3054579 0.871088,-0.044823 0.866138,-0.5263966 C 11.994897,2.8444968 11.731868,2.6888476 10.975579,2 z"
       id="path7541"
       style="fill:black;fill-opacity:1;fill-rule:evenodd;stroke:none;display:inline;enable-background:new" />
    <path
       d="M 9.0661337,9.6016818 C 14.597003,11.26293 16.147686,6.9532103 20.994597,9.2824424 l 0.0053,-7.4448959 C 21.004355,1.4163754 20.803436,1.1359512 20.178635,1.1438824 L 9.9338405,1.0000034 C 9.3456808,0.99850668 8.9783726,1.4974797 9.0009879,1.8735062 l 0.065146,7.7281756 z"
       id="path7721"
       style="opacity:0.51648356;fill:url(#linearGradient5637);fill-opacity:1;fill-rule:evenodd;stroke:none;display:inline;enable-background:new" />
    <path
       d="m 14.90233,5 c -2.789057,2.6337112 -3.918124,3.3664198 -3.902163,4.8193758 0.0155,1.4124282 1.889945,2.6146752 3.48697,1.6994772 0.183947,0.632522 0.235516,1.341517 -0.628891,1.897569 0.07073,-0.0012 2.285214,0 2.285214,0 -0.784579,-0.570042 -0.829672,-1.304027 -0.608152,-2.012392 1.790007,1.042822 3.484328,-0.153024 3.46452,-1.797091 C 18.979595,7.8830765 17.927474,7.3516949 14.90233,5 z"
       id="path7545"
       style="fill:black;fill-opacity:1;fill-rule:evenodd;stroke:none" />
    <path
       d="m 18.975595,17 c -0.697274,-0.771265 -0.979532,-0.985831 -0.975554,-1.411318 0.0039,-0.413621 0.472491,-0.765689 0.871752,-0.497681 0.04599,-0.185231 0.05887,-0.392852 -0.157231,-0.555689 0.01768,3.62e-4 0.571302,0 0.571302,0 -0.19614,0.166932 -0.20741,0.381876 -0.15204,0.589314 0.447512,-0.305381 0.871092,0.04481 0.866133,0.526265 -0.0051,0.50482 -0.268092,0.660431 -1.024362,1.349109 z"
       id="path7547"
       style="fill:black;fill-opacity:1;fill-rule:evenodd;stroke:none;display:inline;enable-background:new" />
    <g
       transform="matrix(0.3630917,-0.09734184,0.09580994,0.3688959,-4.4877194,8.5715171)"
       id="g7563"
       style="stroke-width:2.88911819;stroke-miterlimit:4;stroke-dasharray:none">
      <path
         d="m 11.249051,13.68551 c 11.018461,7.81637 20.073808,0.268022 29.079725,9.104008 L 45.504535,4.7780871 44.31062,2.2533867 19.506897,-5.5996203 16.789787,-4.2944189 11.249051,13.68551 z"
         id="path7565"
         style="opacity:0.51648356;fill:url(#linearGradient5618);fill-opacity:1;fill-rule:evenodd;stroke:none" />
    </g>
    <rect
       width="12.975546"
       height="17.979927"
       rx="1.2713053"
       ry="1.3028848"
       x="0.53181374"
       y="3.4967833"
       transform="matrix(0.9999982,0.00189005,-0.0015676,0.9999988,0,0)"
       id="rect7567"
       style="fill:url(#linearGradient6430);fill-opacity:1;fill-rule:nonzero;stroke:#888a85;stroke-width:1.00037313;stroke-linecap:round;stroke-linejoin:miter;stroke-miterlimit:4;stroke-opacity:1;stroke-dasharray:none;stroke-dashoffset:0" />
    <rect
       width="10.975771"
       height="15.979479"
       rx="0.21895811"
       ry="0.2277907"
       x="1.5313822"
       y="4.4968014"
       transform="matrix(0.9999982,0.00191966,-0.00154204,0.9999988,0,0)"
       id="rect7569"
       style="fill:url(#linearGradient6427);fill-opacity:1;fill-rule:nonzero;stroke:url(#radialGradient6440);stroke-width:1.00031006;stroke-linecap:round;stroke-linejoin:miter;stroke-miterlimit:4;stroke-opacity:1;stroke-dasharray:none;stroke-dashoffset:0" />
    <path
       d="M 6.9540108,9.8454879 C 8.6736216,7.9162151 11.02161,9.7111126 10.999849,11.547601 10.979963,13.226477 9.8453471,14.025734 6.9914964,17 4.0245669,14.209247 2.9780529,13.564149 3.0003478,11.572219 3.0228792,9.5102615 5.0434513,7.9712524 6.9540108,9.8454879 z"
       id="path7571"
       style="fill:#c00;fill-opacity:1;fill-rule:evenodd;stroke:none" />
    <path
       d="M 2.9884938,5.211371 C 3.4183856,4.729053 4.0053855,5.177778 3.9999627,5.6369021 3.9949868,6.056618 3.7113371,6.256432 2.9978668,7 2.2561452,6.302312 1.9945217,6.141036 2.0000867,5.643053 2.0057227,5.1275651 2.5108733,4.7428141 2.9884938,5.211371 z"
       id="path7697"
       style="fill:#c00;fill-opacity:1;fill-rule:evenodd;stroke:none;display:inline;enable-background:new" />
    <path
       d="M 1.0661451,12.605977 C 6.5970112,14.268055 8.1476907,9.9561828 12.994596,12.286578 l 0.0053,-7.4486133 C 13.004356,4.4165832 12.803435,4.1360191 12.178635,4.1439543 L 1.9338448,4.0000034 C 1.3456903,3.998506 0.97837436,4.4977282 1.0009877,4.8739423 l 0.065157,7.7320347 z"
       id="path7575"
       style="opacity:0.51648356;fill:url(#linearGradient6422);fill-opacity:1;fill-rule:evenodd;stroke:none" />
    <path
       d="m 10.988493,19.788629 c 0.429893,0.482318 1.016893,0.03359 1.01147,-0.425531 -0.005,-0.419716 -0.288626,-0.61953 -1.002096,-1.363098 -0.741722,0.697688 -1.0033453,0.858965 -0.99778,1.356947 0.0056,0.515488 0.510787,0.900239 0.988406,0.431682 z"
       id="path7577"
       style="fill:#c00;fill-opacity:1;fill-rule:evenodd;stroke:none;display:inline;enable-background:new" />
  </g>
</svg>

<?xml version="1.0" encoding="UTF-8" standalone="no"?>
<!-- Created with Inkscape (http://www.inkscape.org/) -->
<svg id="svg11300" xmlns="http://www.w3.org/2000/svg" height="22" width="22" version="1.0" xmlns:xlink="http://www.w3.org/1999/xlink">
 <defs id="defs3">
  <linearGradient id="linearGradient5460">
   <stop id="stop5462" style="stop-color:#e5e5e5" offset="0"/>
   <stop id="stop5464" style="stop-color:#c8c8c8" offset="1"/>
  </linearGradient>
  <linearGradient id="linearGradient2296">
   <stop id="stop2298" style="stop-color:#fff" offset="0"/>
   <stop id="stop2300" style="stop-color:#fff;stop-opacity:0" offset="1"/>
  </linearGradient>
  <linearGradient id="linearGradient3116">
   <stop id="stop3118" style="stop-color:#e5e5e5" offset="0"/>
   <stop id="stop3120" style="stop-color:#dfdfdf" offset="1"/>
  </linearGradient>
  <linearGradient id="linearGradient5618" y2="18.534" xlink:href="#linearGradient2296" gradientUnits="userSpaceOnUse" x2="78" gradientTransform="matrix(.96932 .30347 -.31303 .99988 -26.514 -28.878)" y1="18.534" x1="48"/>
  <linearGradient id="linearGradient5637" y2="38.118" xlink:href="#linearGradient2296" gradientUnits="userSpaceOnUse" x2="68.843" gradientTransform="matrix(.43534 -.0063415 .0057960 .43784 -11.844 -2.2387)" y1="9.1136" x1="54.287"/>
  <linearGradient id="linearGradient5641" y2="44.77" xlink:href="#linearGradient3116" gradientUnits="userSpaceOnUse" x2="50.809" gradientTransform="matrix(.33403 0 0 .48314 2.9238 -2.5646)" y1="17.249" x1="34.562"/>
  <linearGradient id="linearGradient5644" y2="41.37" xlink:href="#linearGradient5460" gradientUnits="userSpaceOnUse" x2="51.861" gradientTransform="matrix(.37466 0 0 .51578 1.615 -3.4762)" y1="24.984" x1="35.321"/>
  <linearGradient id="linearGradient6422" y2="38.118" xlink:href="#linearGradient2296" gradientUnits="userSpaceOnUse" x2="68.843" gradientTransform="matrix(.43534 -.0063447 .0057960 .43805 -19.844 .75966)" y1="9.1136" x1="54.287"/>
  <linearGradient id="linearGradient6427" y2="44.77" xlink:href="#linearGradient3116" gradientUnits="userSpaceOnUse" x2="50.809" gradientTransform="matrix(.33402 0 0 .48314 -5.0713 .45094)" y1="17.249" x1="34.562"/>
  <linearGradient id="linearGradient6430" y2="41.37" xlink:href="#linearGradient5460" gradientUnits="userSpaceOnUse" x2="51.861" gradientTransform="matrix(.37466 0 0 .51578 -6.3801 -.46128)" y1="24.984" x1="35.321"/>
  <radialGradient id="radialGradient6440" xlink:href="#linearGradient2296" gradientUnits="userSpaceOnUse" cy="7.3192" cx="1.8372" gradientTransform="matrix(1 0 0 1.4178 0 -5.217)" r="5.988"/>
  <radialGradient id="radialGradient6448" xlink:href="#linearGradient2296" gradientUnits="userSpaceOnUse" cy="3.9302" cx="9.5666" gradientTransform="matrix(1 0 0 1.4178 0 -3.9571)" r="5.988"/>
 </defs>
 <g id="g6450">
  <g id="g7713" style="stroke-width:2.8891;enable-background:new" transform="matrix(.36301 -.097393 .095787 .36909 3.5108 5.5647)">
   <path id="path7715" style="opacity:.51648;fill-rule:evenodd;fill:url(#linearGradient5618)" d="m11.249 13.686c11.018 7.8164 20.074 0.26802 29.08 9.104l5.176-18.012-1.194-2.5246-24.804-7.853-2.717 1.3052-5.541 17.98z"/>
  </g>
  <rect id="rect7717" style="stroke:#888a85;stroke-linecap:round;enable-background:new;fill:url(#linearGradient5644)" transform="matrix(1 0.00189 -.0015676 1 0 0)" rx="1.2713" ry="1.3029" height="17.98" width="12.976" y=".48185" x="8.5269"/>
  <rect id="rect7719" style="stroke-width:1.0001;stroke:url(#radialGradient6448);stroke-linecap:round;enable-background:new;fill:url(#linearGradient5641)" transform="matrix(1 .0019196 -.0015420 1 0 0)" rx=".21896" ry=".22779" height="15.98" width="10.976" y="1.4813" x="9.5266"/>
  <path id="path7541" style="enable-background:new;fill-rule:evenodd" d="m10.976 2c-0.69727 0.77145-0.97954 0.98608-0.97554 1.4117 0.0039 0.41372 0.47248 0.76588 0.87174 0.4978 0.04599 0.18528 0.05888 0.39295-0.15723 0.55583 0.01768-0.0003626 0.57132 0 0.57132 0-0.19615-0.16698-0.20743-0.38197-0.15205-0.58946 0.44751 0.30546 0.87109-0.044823 0.86614-0.5264-0.005-0.5049-0.268-0.6606-1.024-1.3494z"/>
  <path id="path7721" style="opacity:.51648;fill-rule:evenodd;enable-background:new;fill:url(#linearGradient5637)" d="m9.0661 9.6017c5.5309 1.6613 7.0819-2.6485 11.929-0.3193l0.0053-7.4449c0.004-0.4211-0.197-0.7015-0.821-0.6936l-10.245-0.1439c-0.5883-0.00149-0.9556 0.4975-0.933 0.8735l0.065146 7.7282z"/>
  <path id="path7545" style="fill-rule:evenodd" d="m14.902 5c-2.7891 2.6337-3.9181 3.3664-3.9022 4.8194 0.0155 1.4124 1.8899 2.6147 3.487 1.6995 0.18395 0.63252 0.23552 1.3415-0.62889 1.8976 0.07073-0.0012 2.2852 0 2.2852 0-0.78458-0.57004-0.82967-1.304-0.60815-2.0124 1.79 1.0428 3.4843-0.15302 3.4645-1.7971-0.019-1.7239-1.072-2.2553-4.097-4.607z"/>
  <path id="path7547" style="enable-background:new;fill-rule:evenodd" d="m18.976 17c-0.69727-0.77126-0.97953-0.98583-0.97555-1.4113 0.0039-0.41362 0.47249-0.76569 0.87175-0.49768 0.04599-0.18523 0.05887-0.39285-0.15723-0.55569 0.01768 0.000362 0.5713 0 0.5713 0-0.19614 0.16693-0.20741 0.38188-0.15204 0.58931 0.44751-0.30538 0.87109 0.04481 0.86613 0.52626-0.0051 0.50482-0.26809 0.66043-1.0244 1.3491z"/>
  <g id="g7563" style="stroke-width:2.8891" transform="matrix(.36309 -.097342 .095810 .36890 -4.4877 8.5715)">
   <path id="path7565" style="opacity:.51648;fill:url(#linearGradient5618);fill-rule:evenodd" d="m11.249 13.686c11.018 7.8164 20.074 0.26802 29.08 9.104l5.176-18.012-1.194-2.5246-24.804-7.853-2.717 1.3052-5.541 17.98z"/>
  </g>
  <rect id="rect7567" style="stroke:#888a85;stroke-linecap:round;stroke-width:1.0004;fill:url(#linearGradient6430)" transform="matrix(1 0.00189 -.0015676 1 0 0)" rx="1.2713" ry="1.3029" height="17.98" width="12.976" y="3.4968" x=".53181"/>
  <rect id="rect7569" style="stroke:url(#radialGradient6440);stroke-linecap:round;stroke-width:1.0003;fill:url(#linearGradient6427)" transform="matrix(1 .0019197 -.0015420 1 0 0)" rx=".21896" ry=".22779" height="15.979" width="10.976" y="4.4968" x="1.5314"/>
  <path id="path7571" style="fill:#c00;fill-rule:evenodd" d="m6.954 9.8455c1.7196-1.9293 4.068-0.1344 4.046 1.7025-0.02 1.678-1.1547 2.478-4.0085 5.452-2.9669-2.791-4.0134-3.436-3.9912-5.428 0.0226-2.0617 2.0432-3.6007 3.9537-1.7265z"/>
  <path id="path7697" style="enable-background:new;fill:#c00;fill-rule:evenodd" d="m2.9885 5.2114c0.4299-0.4823 1.0169-0.0336 1.0115 0.4255-0.005 0.4197-0.2887 0.6195-1.0021 1.3631-0.7418-0.6977-1.0034-0.859-0.9978-1.3569 0.0056-0.5155 0.5108-0.9003 0.9884-0.4317z"/>
  <path id="path7575" style="opacity:.51648;fill:url(#linearGradient6422);fill-rule:evenodd" d="m1.0661 12.606c5.5309 1.662 7.0816-2.6498 11.929-0.319l0.0053-7.4486c0.004-0.4218-0.197-0.7024-0.821-0.6944l-10.245-0.144c-0.5883-0.0015-0.95563 0.4977-0.933 0.8739l0.065157 7.732z"/>
  <path id="path7577" style="enable-background:new;fill:#c00;fill-rule:evenodd" d="m10.988 19.789c0.42989 0.48232 1.0169 0.03359 1.0115-0.42553-0.005-0.41972-0.28863-0.61953-1.0021-1.3631-0.74172 0.69769-1.0033 0.85896-0.99778 1.3569 0.0056 0.51549 0.51079 0.90024 0.98841 0.43168z"/>
 </g>
</svg>
